X:1
T:A minor                                Jeremiah Ingalls, 1805
T:Charles Wesley, 1745 Hymns for 1745, no. 15            77. 447.
T:Head of the Church
T:Transcribed from Ingalls' Christian Harmony , 180 5 Counter by B. C. Johnston, 2017.
%%score [ 1 2 3 4 ]
L:1/8
Q:1/4=150
M:4/4
K:C
V:1 treble nm="Tr." snm="Tr."
V:2 treble nm="C." snm="C."
V:3 treble-8 nm="T." snm="T."
V:4 bass nm="B." snm="B."
V:1
"^1. Head  of  the  church  triumphant,   We   joy – ful – ly    a   –   dore   thee;    Till   thou  ap–pear,  Thy members here  Shall  sing  like  those  in   glo – ry.\n2. We  lift    our   hearts   and voi–ces    With  blest  an –  ti  –  ci  –  pa – tion,    And  cry    a  – loud,   And  give  to   God    The   praise  of    our   sal–va–tion." A4 A2 dc | %1
 B2 ^G2 E4 | E4 A4 | c2 e2 f2 ed | e4 e4 || c4 B2 A2 | B2 c2 A2 dc | B4 d4 | e2 d2 c2 A^G | %9
 A4 A4 |] %10
V:2
"^3. While  in  af–flic–tion’s  fu – rnace,  And  pas – sing  through   the    fire,     Thy  love we praise  Which knows our days,  And  ev – er  brings us nigher.\n4. We  clap  our  hands  ex – ul – ting   In  thine  al – migh  –  ty      fa – vor;     The  love  di–vine  Which made us thine  Shall  keep  us  thine  for  ev – er." A4 c2 A2 | %1
 B2 ^G2 A4 | E4 A4 | E2 ^G2 F2 E2 | A4 A4 || c4 B2 A2 | ^G2 E2 A2 Bc | B4 A4 | c2 A2 E2 A^G | %9
 A4 A4 |] %10
V:3
"^5. Thou  dost  con–duct  thy  peo–ple  Through tor–rents of  temp–ta–tion,  Nor   will  we  fear,  While  thou  art near,  The  fire  of  tri – bu    –    la  –  tion.\n6. The  world  with  sin  and  Sa – tan  In  vain  our  march    op  – po  – ses,    In  thee we shall   Break through them all  And  sing  the  song  of   Mo – ses." A4 c2 A2 | %1
 e2 B2 A4 | A4 c4 | e2 ^g2 a2 b2 | a4 e4 || e4 ^g2 a2 | ^g2 e2 d2 B2 | ^G4 A4 | c2 A2 e2 c2 | %9
 A4 A4 |] %10
V:4
"^7. By  faith  we     see    the  glo  –  ry     To  which  thou  shalt  re – store us,     The  cross  de–spise   For that high prize  Which  thou  hast  set  be–fore  us.\n8. And  if   thou   count   us  wor – thy,  We  each,   as   dy  –  ing   Ste –phen,   Shall see thee stand  At God’s right-hand  To    take   us     up    to     hea – ven.""^_________________________________________\nA folk hymn (Jackson 1952, No. 322)." A,4 A,2 D,2 | %1
 E,2 E,2 A,,4 | A,,4 A,4 | E,2 E,2 D,2 E,2 | A,4 A,4 || A,4 E,2 D,2 | E,2 C,2 D,2 D,2 | E,4 D,4 | %8
 C,2 D,2 E,2 E,2 | A,,4 A,,4 |] %10

